X: 1
T: Cattle In The Crops
M: 6/8
L: 1/8
R: jig
K: Dmaj
|:AFA fed|BGB g2B|AFA fed|BcB B2B|
AFA fed|BGB g2g|faf gec|ded d3:|
|:a2a afd|gab a2f|fga agf|gfg efg|
aba afd|gab a2g|faf gec|ded d3:||
